X:2955
T:Polska efter Emil Nilsson i Geresta
R:Polska
O:Geresta, Ångermanland
Z:till abc av Lennart Sohlman
N:Inspelad av Anders Eriksson och Håkan Olsson - "Rena rama Ångermanland" 1994
Q:1/4=120
M:3/4
L:1/8
K:Dm
V:1
(A>f) (f>e) e>d|(d>^c) A3 (F|D>)(^C D>)(E F)G|AB/A/ G(B/G/) A2|!
(A>f) (f>e) e>d|(d>^c) A2 (a2|g)e/g/ fd/f/ e>d|(^c>d) d3z::!
A2 (f>e) ^c>e|(df) a3(a|b)a g2 (e>g)|f(a/f/) e(g/f/) e2|!
A2 (f>e) (^c>e)|(df) a3(a|b)a g2 (e>g)|f(a/f/) e(g/f/) e>d|(^c>d) d3z:|]
V:2
[A,2D2] (d>^c) c>A|(A>G) E3 (D|A,>)A,- A,>(^C D)E|FG/F/ E(G/E/) F2|!
[A,2D2] (d>^c) c>A|(A>G) E2 (f2|e)^c/e/ dA/d/ A>F|(E>F) [F3A3]z::!
[A,2D2] (d>^c) A>c|(Ad) f3 (f|g)f e2 (^c>e)|d(f/d/) ^c(e/d/) c2|!
[A,2D2] (d>^c) (A>c)|(Ad) f3 (f|g)f e2 (^c>e)|d(f/d/) ^c(e/d/) c>A|(E>F) [F3A3]z:|]
(:musicend:)
Jag försöker radera låten men kan bara ta bort noter och text, inte hela posten.
Jag försöker radera låten men kan bara ta bort noter och text, inte hela posten.



(:music:)
